!!!AGN: Motet
!!!SCT: Ory
!!!voices: 4
!!!COM: Jachet of Mantua
!!!OTL: Domine bonum est
**kern	**kern	**kern	**kern
*part4	*part3	*part2	*part1
*staff4	*staff3	*staff2	*staff1
*I"Bassus	*I"Tenor	*I"Altus	*I"Superius
*I'B	*I'T	*I'A	*I'S
*clefF4	*clefGv2	*clefGv2	*clefG2
*k[b-]	*k[b-]	*k[b-]	*k[b-]
*F:	*F:	*F:	*F:
*M2/1	*M2/1	*M2/1	*M2/1
*met(C|)	*met(C|)	*met(C|)	*met(C|)
!!section: Prima pars: Domine bonum est
!!!OMD: Prima pars: Domine bonum est
0r	0r	1.G	0r
.	.	2F	.
=1	=1	=1	=1
0r	0r	2.B-y	1r
.	.	4c	.
.	.	2d	2r
.	.	[2e-i	[2g
=2	=2	=2	=2
0r	0r	4e-]	2g]
.	.	4d	.
.	.	2.d	2f
.	.	.	2.b-y
.	.	4c	.
.	.	4B-y	.
.	.	4A	4cc
=3	=3	=3	=3
0r	0r	2G	2dd
.	.	1g	2.ee-i
.	.	.	4dd
.	.	2f	[2dd
=4	=4	=4	=4
2r	1r	1e	2dd]
1c	.	.	2cc#i
.	2r	[1d	1dd
2B-y	[2G	.	.
=5	=5	=5	=5
1A	2G]	0d]	0r
.	2F	.	.
1G	2.B-y	.	.
.	4c	.	.
=6	=6	=6	=6
2r	2d	0r	0r
1G	2.e-i	.	.
.	4d	.	.
2F	[2d	.	.
=7	=7	=7	=7
1E	2d]	1r	2r
.	2c#i	.	1g
1D	1d	2r	.
.	.	[2d	2f
=8	=8	=8	=8
1r	0A	2d]	1e
.	.	2c	.
[1D	.	[1f	4d
.	.	.	4e
.	.	.	4f
.	.	.	4g
=9	=9	=9	=9
2D]	1r	2f]	4a
.	.	.	4b-y
2C	.	2e	2.cc
[1F	2r	2c	.
.	.	.	4b-y
.	[2c	[2f	4a
.	.	.	4g
=10	=10	=10	=10
2F]	2c]	4f]	4a
.	.	4e	4g
2G	2B-y	4d	1g
.	.	4c	.
1D	1A	1d	.
.	.	.	2f
=11	=11	=11	=11
1G	1G	2r	2.b-y
.	.	2d	.
.	.	.	4a
1r	1r	2e	2g
.	.	2d	2f
=12	=12	=12	=12
0r	0r	1g	1e
.	.	2.f	2d
.	.	.	[2dd
.	.	8eL	.
.	.	8dJ	.
=13	=13	=13	=13
1r	2r	1e	2dd]
.	2A	.	2cc#i
[1D	2B-y	1d	[1dd
.	2A	.	.
=14	=14	=14	=14
1D]	1d	1r	1dd]
2E	2c	2r	1r
2D	4B-y	2d	.
.	4A	.	.
=15	=15	=15	=15
1G	1B-y	2e	0r
.	.	2d	.
2F	2A	1f	.
4E	[2d	.	.
4D	.	.	.
=16	=16	=16	=16
1E	2d]	1g	1r
.	2c#i	.	.
[1D	[1d	[1f	2r
.	.	.	2a
=17	=17	=17	=17
0D]	1d]	0f]	2b-y
.	.	.	2a
.	2r	.	1dd
.	2d	.	.
=18	=18	=18	=18
1r	2e	0r	2cc
.	2d	.	4b-y
.	.	.	4a
2r	1g	.	1b-y
2G	.	.	.
=19	=19	=19	=19
2A	2.f	0r	2a
2G	.	.	1dd
.	8eL	.	.
.	8dJ	.	.
1c	1e	.	.
.	.	.	2cc#i
=20	=20	=20	=20
2.B-y	2d	2r	1dd
.	1g	1d	.
8AL	.	.	.
8GJ	.	.	.
1A	.	.	1r
.	2f#i	2c	.
=21	=21	=21	=21
[0G	1g	1d	2r
.	.	.	1dd
.	2r	2G	.
.	[2d	[2g	2g
=22	=22	=22	=22
1G]	2d]	2g]	1b-y
.	2G	2d	.
1r	2A	1f	2a
.	2B-y	.	[2dd
=23	=23	=23	=23
1r	2G	1e	2dd]
.	2A	.	2cc#i
2r	2.B-y	[1d	1dd
[2G	.	.	.
.	4c	.	.
=24	=24	=24	=24
2G]	4d	1d]	2g
.	4e	.	.
2D	1f	.	1a
1F	.	1r	.
.	[2d	.	4g
.	.	.	4f
=25	=25	=25	=25
1E	2d]	2r	1g
.	2c#i	2G	.
2D	1d	2A	2f
[2G	.	2G	[2b-y
=26	=26	=26	=26
2G]	2G	0d	2b-]
2F	2A	.	2a
1G	4B-y	.	2.g
.	4c	.	.
.	4d	.	.
.	4B-y	.	4b-y
=27	=27	=27	=27
2C	4c	2e	4a
.	4B-y	.	4g
2E	4A	2c	1g
.	4G	.	.
1D	2A	1d	.
.	[2B-y	.	2f
=28	=28	=28	=28
2.E	4B-]	2B-y	[0g
.	4G	.	.
.	1c	1e-X	.
4C	.	.	.
1G	.	.	.
.	2B-y	2d	.
=29	=29	=29	=29
1C	1e-X	1c	0g_
2r	1d	2.B-y	.
2G	.	.	.
.	.	4c	.
=30	=30	=30	=30
1G	2r	[0d	0g]
.	2G	.	.
2.B-y	1G	.	.
4A	.	.	.
=31	=31	=31	=31
2G	2B-y	0d]	1r
2F	2A	.	.
1G	2.B-y	.	2r
.	.	.	2dd
.	4c	.	.
=32	=32	=32	=32
0D	1d	2r	1dd
.	.	2d	.
.	1A	1d	2.ff
.	.	.	4ee
=33	=33	=33	=33
0r	1r	2f	2dd
.	.	2e	2cc
.	2r	2.f	1dd
.	2d	.	.
.	.	4g	.
=34	=34	=34	=34
0r	1d	2a	[0a
.	.	2d	.
.	2.f	1d	.
.	4e	.	.
=35	=35	=35	=35
0r	2d	2.f	0a_
.	2c	.	.
.	.	4e	.
.	2d	2d	.
.	2A	2c	.
=36	=36	=36	=36
2r	1r	1d	0a]
2D	.	.	.
1D	2r	2A	.
.	2A	[2a	.
=37	=37	=37	=37
2F	2A	2a]	1r
2E	1c	2g	.
2.F	.	1f	2r
.	2A	.	2a
4G	.	.	.
=38	=38	=38	=38
1.A	1.c	1e	1a
.	.	2f	2cc
2G	2d	[2g	2b-y
=39	=39	=39	=39
1.c	1.e	2g]	2.cc
.	.	2c	.
.	.	.	4dd
.	.	2g	2ee
2F	2c	2a	[2ff
=40	=40	=40	=40
1B-y	4d	2.f	4ff]
.	4e	.	4ee
.	4f	.	1dd
.	4d	4g	.
1A	1e	1a	.
.	.	.	2cc#i
=41	=41	=41	=41
1D	0d	[0f	[0dd
1r	.	.	.
=42	=42	=42	=42
0D	2r	0f]	0dd]
.	2A	.	.
.	2B-y	.	.
.	2A	.	.
=43	=43	=43	=43
2E	2c	0r	0r
2D	1d	.	.
[1F	.	.	.
.	4c	.	.
.	4B-y	.	.
=44	=44	=44	=44
1F]	1A	1r	1r
[1G	1G	2r	[1g
.	.	2d	.
=45	=45	=45	=45
1G]	0r	2e	1g]
.	.	2d	.
1r	.	2f	2a
.	.	[2g	2g
=46	=46	=46	=46
0r	1r	2g]	0b-y
.	.	4f	.
.	.	4e	.
.	2r	1d	.
.	2G	.	.
=47	=47	=47	=47
2r	2A	1c	1cc
2C	2G	.	.
2D	2B-y	1r	1r
2C	[2c	.	.
=48	=48	=48	=48
2E	2c]	0r	0r
1F	4B-y	.	.
.	4A	.	.
.	4B-y	.	.
.	4A	.	.
4E	[2d	.	.
4D	.	.	.
=49	=49	=49	=49
1E	2d]	2r	1r
.	2c#i	2e	.
1D	1d	2f	2r
.	.	2d	2a
=50	=50	=50	=50
0r	0r	2g	2b-y
.	.	1a	2a
.	.	.	2cc
.	.	4g	[2dd
.	.	4f	.
=51	=51	=51	=51
2r	1r	4g	2dd]
.	.	4f	.
2G	.	4e	4cc
.	.	4d	4b-y
2c	2r	1e	1cc
2c	2A	.	.
=52	=52	=52	=52
2.B-y	2B-y	1d	0dd
.	4G	.	.
4A	4A	.	.
2G	4B-y	2r	.
.	4c	.	.
2F	[2d	2d	.
=53	=53	=53	=53
1E	2d]	2g	0r
.	2c#i	2g	.
2.D	[1d	2.f	.
4E	.	4e	.
=54	=54	=54	=54
4F	2d]	2d	1r
4G	.	.	.
2.A	2A	2c	.
.	1r	1B-y	2r
4G	.	.	.
[2G	.	.	2g
=55	=55	=55	=55
2G]	0r	1A	2cc
2F#i	.	.	2cc
[1G	.	2.G	2.b-y
.	.	4A	4a
=56	=56	=56	=56
2G]	2r	4B-y	2g
.	.	4c	.
2D	2d	1d	2f
1r	2g	.	1e
.	2g	2c#i	.
=57	=57	=57	=57
0r	2.f	2d	2.d
.	.	1f	.
.	4e	.	4e
.	2d	.	4f
.	.	.	4g
.	2c	[2e	[2a
=58	=58	=58	=58
2r	1B-y	2e]	4a]
.	.	.	4g
2G	.	2d	1g
2c	1A	2e	.
2c	.	2c	2f#i
=59	=59	=59	=59
2.B-y	2.G	1d	1g
4A	4A	.	.
2G	4B-y	2r	1r
.	4c	.	.
2F	[2d	2d	.
=60	=60	=60	=60
1E	2d]	2g	0r
.	2c	2g	.
2.D	[1d	2.f	.
4E	.	4e	.
=61	=61	=61	=61
4F	2d]	2d	1r
4G	.	.	.
2.A	2A	2c	.
.	1r	1B-y	2r
4G	.	.	.
[2G	.	.	2g
=62	=62	=62	=62
2G]	0r	1A	2cc
2F#i	.	.	2cc
2.G	.	2.G	2.b-y
4Fny	.	4A	4a
=63	=63	=63	=63
2E	2r	1B-y	2g
2D	2d	.	2f
1C	2g	1c	1e
.	2g	.	.
=64	=64	=64	=64
[0D	2.f	0A	2.d
.	4e	.	4e
.	2d	.	4f
.	.	.	4g
.	2c	.	[2a
=65	=65	=65	=65
0D]	1B-y	0d	4a]
.	.	.	4g
.	.	.	1g
.	1A	.	.
.	.	.	2f#i
=66	=66	=66	=66
00Gl	00Gl	00dl	00gl
==	==	==	==
*-	*-	*-	*-
!!!system-decoration: [*]
!!!RDF**kern: i = editorial accidental
!!!RDF**kern: l = terminal long
!!!ENC: Benjamin Ory
!!!END: 2023/1/22
!!!EED: Emiliano Ricciardi
!!!EEV: 2023/01/22
!!!YEC: Copyright 2023 Benjamin Ory, All Rights Reserved
!!!ONB: Translated from MusicXML on 2023/01/22